X: 2030
T: Aspe.
%R: _
B: Henry Playford "Apollo's Banquet", London 1687 (5th Edition)
F: https://archive.org/details/apollosbanquetco01rugg
Z: 2017 John Chambers <jc:trillian.mit.edu>
N: The initial rests are a bit odd, and the 1st bar of the 2nd strain is half-size.
M: 3/2
L: 1/8
K: C
% - - - - - - - - - -
z2 z2 G2 |\
c2 cd e2 d3cd2 | e2 f2 g2 e2 c2 cd |\
ef de fg a2 gf ed | ef gf ef d2 B2 Bc |
dB ed cB A2 f2 f2 | e2 fe dc B3cd2 |\
G2 A2 ^F2 G4 :: B2 |\
AB GA Bc | d2 G2 G2 AB cd ef |
e2 c2 c2 de fe fg |\
a2 f2 fg a2 g2 f2 |\
e4 f4 d3c | B4 e4 c3B |\
A2 dc Bc de d2 B2 | Hc4 |]
% - - - - - - - - - -

%%sep 1 1 500
%%sep 1 1 500

